packages/ffe-icons/icons/filled/lg/no_sim.svg

<svg xmlns="http://www.w3.org/2000/svg" height="40" viewBox="0 -960 960 960" width="40"><path d="M320.796-728.896q-9.616-9.359-9.616-21.923 0-12.564 9.616-21.923l68.487-68.744q8.615-8.359 20.346-13.436 11.73-5.077 24.294-5.077h283.512q26.256 0 44.41 18.359 18.154 18.359 18.154 44.205v451.896q0 20.923-19.218 28.808-19.218 7.884-33.987-6.885l-405.998-405.28Zm-78.231 628.895q-25.846 0-44.205-18.359-18.359-18.359-18.359-44.205v-440.537q0-12.564 4.872-24.423 4.872-11.859 13.898-20.218l16.974-16.564L77.899-802.154q-7.436-7.436-7.525-17.5-.09-10.063 7.73-17.884 7.82-7.358 17.692-7.461 9.871-.103 17.692 7.461l735.383 735.384q7.231 7.23 7.423 17.525.192 10.295-7.423 17.859-7.82 7.82-17.794 7.82t-17.794-7.82l-153.64-153.64 35.332-35.383 85.024 85.023v8.205q0 25.846-18.359 44.205-18.359 18.359-44.205 18.359h-474.87Z"/></svg>

<svg xmlns="http://www.w3.org/2000/svg" viewBox="0 -960 960 960" width="32" height="32"><path d="M320.8-728.9q-9.62-9.36-9.62-21.92 0-12.56 9.62-21.92l68.48-68.75q8.62-8.35 20.35-13.43 11.73-5.08 24.29-5.08h283.51q26.26 0 44.41 18.36Q780-823.28 780-797.43v451.89q0 20.92-19.22 28.81-19.22 7.88-33.99-6.89L320.8-728.9ZM242.57-100q-25.85 0-44.21-18.36T180-162.57V-603.1q0-12.57 4.87-24.43 4.87-11.85 13.9-20.21l16.98-16.57L77.9-802.15q-7.44-7.44-7.53-17.5-.09-10.07 7.73-17.89 7.82-7.36 17.7-7.46 9.87-.1 17.69 7.46l735.38 735.39q7.23 7.23 7.42 17.52.2 10.3-7.42 17.86-7.82 7.82-17.79 7.82-9.98 0-17.8-7.82L659.64-220.41l35.34-35.38L780-170.77v8.2q0 25.85-18.36 44.21T717.43-100H242.57Z"/></svg>
